X:78
T: Graf und Nonne (Die Nonne)
N: Q0155O
O: Mitteleuropa, Deutschland (BRD) , Wuerttemberg, Sindelfingen
R: Ballade, Standesunterschied, vergebliche Werbung, Liebe, Klage
M: 6/8
L: 1/16
K: G
D2 | B,2D2G2B,2D2B2 | B2A2z6
DD | D2F2A2e2d2c2 | B6z4
GB | d4d2d2c2B2 | B2A2z6
D2 | D2F2A2e2d2c2 | B6z4
GB | d4d2d2c2B2 | B2A2z6
D2 | D2F2A2e2d2c2 | B6z4

